X:1
T:Title
%%score 1 2
L:1/8
Q:1/4=100
M:4/4
K:Eb
V:1 treble nm="Strings 1, Treble"
V:2 bass nm="Strings 1, Bass"
V:1
 [GB]2 [EG][FA] [GB]2 [Ac]2 | [GB]4 [EG]4 | [B,E]4 [DF]3 [DF] | [EG]6 z2 | %4
 [GB]2 [EG][FA] [GB]2 [Ac]2 | [GB]4 [EG]4 | [EB]4 [DF]3 [DG] | E6 z2 | [Ec]2 [EA][Ec] [EB]4 | %9
 [GB]2 [DF][DA] [EG]4 | [Ge]2 [Bd][Ac] [GB]2 [Ge]2 | [GB]4 [EG]4 | [EB]4 [DF]3 [DG] | E6 z2 |] %14
V:2
 [E,E]2 [E,B,][E,B,] [E,E]2 [E,E]2 | [E,E]4 [E,B,]4 | [E,G,]4 [B,,B,]3 [B,,B,] | [E,B,]6 z2 | %4
 [E,E]2 [E,B,][E,B,] [E,E]2 [E,E]2 | [E,E]4 [E,B,]4 | [B,,G,]4 [B,,A,]3 [B,,B,] | [E,G,]6 z2 | %8
 [A,,A,]2 [A,,C][A,,A,] [E,G,]4 | [B,,B,]2 [B,,B,][B,,B,] [E,B,]4 | %10
 [E,B,]2 [E,C][E,D] [E,E]2 [E,B,]2 | [E,E]4 [E,B,]4 | [B,,G,]4 [B,,A,]3 [B,,B,] | [E,G,]6 z2 |] %14

